X:252
T:While pensive I thought (James)
%%VWML:SBG-1-2-392-0
F:http://www.vwml.org/record/SBG/1/2/392
Z:Original Sibelius transcriptions by M. & S. Graebe
M:6/8
I:linebreak $
K:C
V:1 treble nm="P1"
V:1
 G | GAG GAB | (c3 c2) G | AAA Adc | c3 B2 G | edc cBA |"^slow" G A F E2 G |$ ABc edB | (c3 c2) A | %9
 G3 |[M:4/4]"^slow" AGFD E3 G |[M:6/8]"^a la tempo" ABc edB | c6 | %13
T:While pensive I thought (Nightingale & Thrush)
F:http://www.vwml.org/record/SBG/1/2/392
Z:Original Sibelius transcriptions by M. & S. Graebe
M:6/8
I:linebreak $
K:D
V:1 treble nm="P1"
V:1
 F/G/ | A3/2 B/ A A F D | d3 z2 A | B3/2 c/ d d B e | (d3 c2) F/G/ | A3/2 B/ A A F D |$ d3 z2 A | %7
w: When _|pensive _ I thought on my|love The|moon on the mt.ain _ was|bright _ And _|Philomel _ _ down in the|grove Broke|
 c B A E F ^G | (B A2) z2 A/ A/ | A3/2 B/ A A B c | d3 z2 A |$ B3/2 c/ d d3/2 B/ e | (d3 c) z A | %13
w: sweetly _ the silence _ of|night _ O I|wish that the tear drops wd.|flow But|felt too mch. anguish _ to|weep _ Till|
 B e d d c B | A3 A |$ B2 g/ e/ d/c/ B c | (e d2) (B2 A) | !fermata!A2 z A->BA/G/ | F3 A | %19
w: worn with the weight of my|woe, I|sank on my pillow _ _ to|sleep, _ to _|sleep to _ _ _|sleep I|
 B3/2 c/ d !fermata!d3/2 e/ !fermata!c | d3 x3 | %21
w: sank on my pillow _ to|sleep.|

